!!!COM:	W.AMozart.
!!!OTL:	156
**kern	**kern	**dynam	**kern	**kern
*part4	*part3	*part3	*part2	*part1
*staff4	*staff3	*	*staff2	*staff1
*I"Cello	*I"Viola	*	*I"Violin II	*I"Violin I
*I'Vc.	*I'Vla.	*	*I'Vln. II	*I'Vln. I
*clefF4	*clefC3	*	*clefG2	*clefG2
*k[f#]	*k[f#]	*	*k[f#]	*k[f#]
*e:	*e:	*	*e:	*e:
*M4/4	*M4/4	*	*M4/4	*M4/4
*met(c)	*met(c)	*	*met(c)	*met(c)
=1	=1	=1	=1	=1
!	!	!	!	!
4E	16r	.	16r	4b
.	16eLL	f	16gLL	.
.	16e	sf	16g	.
.	16eJJ	.	16gJJ	.
4E	16r	.	16r	4gg
.	16BLL	.	16eLL	.
.	16B	.	16e	.
.	16BJJ	.	16eJJ	.
4BB	16r	.	16r	4dd#X
.	16f#LL	.	16aLL	.
.	16f#	.	16a	.
.	16f#JJ	.	16aJJ	.
4C	16r	.	16r	4ee
.	16eLL	.	16gLL	.
.	16e	.	16g	.
.	16eJJ	.	16gJJ	.
=2	=2	=2	=2	=2
4D#X	16r	.	16r	4cc
.	16ALL	.	16f#LL	.
.	16f#	.	16a	.
.	16f#JJ	.	16aJJ	.
8EL	16r	.	16r	8bL
.	16eLL	.	16gLL	.
8F#J	16c#X	.	16e	8a#XJ
.	16c#JJ	.	16eJJ	.
4G	16r	.	16r	4b
.	16BLL	.	16dLL	.
.	16B	.	16d	.
.	16BJJ	.	16dJJ	.
4G#X	16r	.	16r	4B
.	16dLL	.	16fnLL	.
.	16d	.	16f	.
.	16dJJ	.	16fJJ	.
=3	=3	=3	=3	=3
4A	16r	.	16r	4c
.	16cnLL	.	16eLL	.
.	16c	.	16e	.
.	16cJJ	.	16eJJ	.
4AA	16r	.	16r	4ffn
.	16ALL	.	16cLL	.
.	16A	.	16c	.
.	16AJJ	.	16cJJ	.
4A	16r	.	16r	4dd#X
.	16cLL	.	16f#LL	.
.	16c	.	16f#	.
.	16cJJ	.	16f#JJ	.
4A#X	16r	.	16r	4ee
.	16c#XLL	.	16gLL	.
.	16c#	.	16g	.
.	16c#JJ	.	16gJJ	.
=4	=4	=4	=4	=4
4B	16r	.	16r	4g
.	16BLL	.	16eLL	.
.	16B	.	16e	.
.	16BJJ	.	16eJJ	.
4BB	16r	.	16r	(8.f#tL
.	16ALL	.	16d#XLL	.
.	16A	.	16d#	.
.	16AJJ	.	16d#JJ	32eLL
.	.	.	.	32f#JJJ)
4E	(16GLL	.	(16eLL	4e
.	16B)	.	16g)	.
.	16B'	.	16g'	.
.	16B'JJ	.	16g'JJ	.
4F#	16r	.	16r	4r
.	16dLL 16a	.	16ccLL	.
.	16d 16a	.	16cc	.
.	16dJJ 16a	.	16ccJJ	.
=5	=5	=5	=5	=5
4Gn	16r	.	16r	2dd
.	16gLL	.	16bLL	.
.	16g	.	16b	.
.	16gJJ	.	16bJJ	.
4B	16r	.	16r	.
.	16dLL	.	16gLL	.
.	16d	.	16g	.
.	16dJJ	.	16gJJ	.
4A	16r	.	16r	4ccc
.	16dLL	.	16f#LL	.
.	16d	.	16f#	.
.	16dJJ	.	16f#JJ	.
4F#	16r	.	16r	4cc
.	16dLL	.	16aLL	.
.	16d	.	16a	.
.	16dJJ	.	16aJJ	.
=6	=6	=6	=6	=6
8GL	16r	.	16r	(8bL
.	16dLL	.	16gLL	.
8GG	16B	.	16g	8ee
.	16BJJ	.	16gJJ	.
8C	16r	.	16r	8e
.	16cnLL	.	16gLL	.
8AAJ	16c	.	16a	8eeJ)
.	16cJJ	.	16eJJ	.
2Dn	16r	.	16r	(4g
.	16BLL	.	16dLL	.
.	16B	.	16d	.
.	16BJJ	.	16dJJ	.
.	16r	.	16r	8f#)
.	16ALL	.	16dLL	.
.	16A	.	16d	8r
.	16AJJ	.	16dJJ	.
=7	=7	=7	=7	=7
!	!	!	!	!
(2AA	16r	.	16r	(2c#X
!	!	!LO:DY:a	!	!
.	16ELL	p	16ALL	.
.	16E	.	16A	.
.	16EJJ	.	16AJJ	.
.	4G	.	4A	.
!	!	!	!	!
4DD	4F#	.	4A	4cn
4EE)	4G	.	4G	4B)
=8	=8	=8	=8	=8
!	!	!	!	!
(2BB	16r	.	16r	(2fn
!	!	!LO:DY:a	!	!
.	16GLL	f	16dLL	.
.	16G	.	16d	.
.	16GJJ	.	16dJJ	.
.	4G	.	4d	.
2C)	16r	.	16r	2e)
.	16GLL	.	16cLL	.
.	16G	.	16c	.
.	16GJJ	.	16cJJ	.
.	4G'	.	4c	.
=9	=9	=9	=9	=9
(4D	16r	.	16r	(2cc
.	16dLL	p	16f#LL	.
.	16d	.	16f#	.
.	16dJJ	.	16f#JJ	.
4D#X	4A	.	4g	.
4E	4G	.	2g	4b
4C#X)	4A	.	.	4ee)
=10	=10	=10	=10	=10
2D	(4B	.	4d	4g
.	4F#	.	(8.cTL	(8.aTL
.	.	.	32BLL	32gLL
.	.	.	32cJJJ)	32aJJJ)
4GG	4G)	.	4B	4g
4r	4r	.	4r	4r
=11:|!|:	=11:|!|:	=11:|!|:	=11:|!|:	=11:|!|:
!	!	!	!	!
4E	16r	.	16r	2b
!	!	!LO:DY:a	!	!
.	16G#XLL	f	16eLL	.
.	16G#	.	16e	.
.	16G#JJ	.	16eJJ	.
4D	4G#	.	4e	.
4Cn	16r	.	16r	4ee
.	16ALL	.	16eLL	.
.	16A	.	16e	.
.	16AJJ	.	16eJJ	.
4BB	16r	.	16r	4dd
.	16eLL	.	16g#XLL	.
.	16e	.	16g#	.
.	16eJJ	.	16g#JJ	.
=12	=12	=12	=12	=12
4AA	16r	.	16r	4cc
.	16eLL	.	16ccLL	.
.	16A	.	16e	.
.	16AJJ	.	16eJJ	.
4GG	16r	.	16r	4b
.	16BLL	.	16eLL	.
.	16B	.	16e	.
.	16BJJ	.	16eJJ	.
(8FF#L	2c#X	.	4e	2a#X
8G)	.	.	.	.
8F#'	.	.	16f#LL	.
.	.	.	16f#	.
8E'J	.	.	16g	.
.	.	.	16gJJ	.
=13	=13	=13	=13	=13
!!linebreak:original
4D#X	16r	.	16r	4b
.	16F#LL	.	16f#LL	.
.	16B	.	16f#	.
.	16BJJ	.	16f#JJ	.
4D#	16r	.	16r	4an
.	16cLL	.	16f#LL	.
.	16c	.	16f#	.
.	16cJJ	.	16f#JJ	.
4E	16r	.	16r	2g
.	16BLL	.	16eLL	.
.	16B	.	16e	.
.	16BJJ	.	16eJJ	.
4C	4c	.	4e	.
=14	=14	=14	=14	=14
4AA	16r	.	16r	4fn
.	16ALL	.	16cLL	.
.	16A	.	16c	.
.	16AJJ	.	16cJJ	.
4AA#X	16r	.	16r	4e
.	16GnLL	.	16c#XLL	.
.	16G	.	16c#	.
.	16GJJ	.	16c#JJ	.
8BBL	8FL	.	4B	2d#X
(8A	8c	.	.	.
8G	8B	.	4r	.
8F#J)	8AJ	.	.	.
=15	=15	=15	=15	=15
4E	16r	.	16r	4b
.	16GLL	.	16eLL	.
.	16G	.	16e	.
.	16GJJ	.	16eJJ	.
4E	16r	.	16r	4gg
.	16eLL	.	16bLL	.
.	16e	.	16b	.
.	16eJJ	.	16bJJ	.
4A	16r	.	16r	4dd#X
.	16f#LL	.	16bLL	.
.	16f#	.	16b	.
.	16f#JJ	.	16bJJ	.
4G	16r	.	16r	4ee
.	16gLL	.	16bLL	.
.	16g	.	16b	.
.	16gJJ	.	16bJJ	.
=16	=16	=16	=16	=16
4D#X	16r	.	16r	4cc
.	16cLL	.	16aLL	.
.	16f#	.	16a	.
.	16f#JJ	.	16aJJ	.
4E	16r	.	16r	8bL
.	16GLL	.	16gLL	.
.	16e	.	16g	8a#XJ
.	16eJJ	.	16gJJ	.
4D#	16r	.	16r	4b
.	16BLL	.	16f#LL	.
.	16B	.	16f#	.
.	16BJJ	.	16f#JJ	.
4Dn	16r	.	16r	4B
.	16GLL	.	16fnLL	.
.	16G	.	16f	.
.	16GJJ	.	16fJJ	.
=17	=17	=17	=17	=17
!!linebreak:original
4C	16r	.	16r	4c
.	16GLL	.	16eLL	.
.	16G	.	16e	.
.	16GJJ	.	16eJJ	.
4BB	16r	.	16r	4ffn
.	16dLL	.	16gLL	.
.	16d	.	16g	.
.	16dJJ	.	16gJJ	.
4C	16r	.	16r	4dd#X
.	16cLL	.	16gLL	.
.	16c	.	16g	.
.	16cJJ	.	16gJJ	.
4AA#X	16r	.	16r	4ee
.	16c#XLL	.	16gLL	.
.	16c#	.	16g	.
.	16c#JJ	.	16gJJ	.
=18	=18	=18	=18	=18
4BB	16r	.	16r	4g
.	16BLL	.	16eLL	.
.	16B	.	16e	.
.	16BJJ	.	16eJJ	.
4AAn	16r	.	16r	(8.fnTL
.	16ALL	.	16dLL	.
.	16A	.	16d	.
.	16AJJ	.	16dJJ	32eLL
.	.	.	.	32fJJJ)
4GG#X	4B	.	2d	[2e
4EE	4G#X	.	.	.
=19	=19	=19	=19	=19
4AA	16r	.	16r	8e]
.	16ALL	p	16cnLL	.
.	16A	p	16c	4ee
.	16AJJ	.	16cJJ	.
4BB	16r	.	16r	.
.	16G#XLL	.	16fnLL	.
.	16G#	.	16f	4dd
.	16G#JJ	.	16fJJ	.
4C	16r	.	16r	.
.	16ALL	.	16eLL	.
.	16A	.	16e	4cc
.	16AJJ	.	16eJJ	.
4D#X	16r	.	16r	.
.	16ALL	.	16f#XLL	.
.	16B	.	16f#	[8b
.	16cJJ	.	16f#JJ	.
=20	=20	=20	=20	=20
4E	16r	.	16r	8bL]
.	16GnLL	.	16c#XLL	.
.	16G	.	16c#	(8a#X
.	16GJJ	.	16c#JJ	.
4AA#X	16c#XLL	.	16eLL	8gg
.	16c#	.	16e	.
.	16c#	.	16f#	8ff#J)
.	16c#JJ	.	16f#JJ	.
2BB	4A#X	.	4g	(4ee
.	8B	.	8f#	8dd#X)
.	8r	.	8r	8r
=21	=21	=21	=21	=21
4E'	2E	.	1r	2G#X
4D'	.	.	.	.
4C#X'	2E	.	.	4A'
4Cn'	.	.	.	4A#X'
=22	=22	=22	=22	=22
4BB'	4D#X'	.	2r	4B'
4AA'	4D#'	.	.	4c'
4r	4r	.	4r	4r
4D#X	4B	.	4f#	4a
=23	=23	=23	=23	=23
2E	(4B	.	2f#	(4g
.	4G	.	.	4b
2AA	4A)	.	8eL	8ccL
.	.	.	8c	8a
.	4r	.	8B	8g
.	.	.	8AJ	8fnJ)
=24	=24	=24	=24	=24
2BB	(4B	.	4G	4e
.	4D#X	.	(8.ATL	(8.f#tL
.	.	.	32GLL	32eLL
.	.	.	32AJJJ)	32f#JJJ)
4EE	4E#X)	.	4G	4e
4r	4r	.	4r	4r
=:|!	=:|!	=:|!	=:|!	=:|!
*-	*-	*-	*-	*-
!!!system-decoration: [(s1,s2,s3,s4)]
